X:3974
L:1/8
M:6/8
K:G
"^Spirito" .D.D.E .F.A.B | (=cd).c B2 D | (DFA) (ABc) |{c} (d3 F2) d | (dB)d =c.B.A | 
 (GF).G .A2 B | (AF).D .D.E.F | E3 D2 d | (dB).d .=c.B.A | (GF).G A2 B | (AF).D .D.E.F | 
 [CE]3 D3 ||

